X:1
T: Bonnie Wee Jeanie M'Coll
C:
R:Jig
Q:180
K:D
M:6/8
L:1/16
F2E2|D2D2D2 F4A2|d4d2 d4d2|d4A2 ^G4A2|B6 B4D2|C4C2 E4G2|c4c2 c4c2|c4c2 B4_B2|A6 A4A2|
D4D2 F4A2|d4d2 d4d2|d4A2 ^G4A2|B6 B4B2|A4A2 c4d2|e2e2e2 e4c2|A4A2 c4B2|A4G2 F4E2|
D4D2 F4A2|d2d2d2 d4d2|d2d2d2 d2A2^A2|B6 B4D2|C2C2C2 C2E2G2|c4c2 c2c2c2|c4c2 c2B2_B2|A6 A4A2|
D4D2 F4A2|d4d2 d4d2|d4A2 ^G4A2|B6 B4B2|A6 c4d2|e6 e4c2|A4A2 A2B2c2|d6 d4||
